X:4026
T:Dunkirke
T:Dunkerque
R:Hornpipe
C:Trad. Playford 1657
O:England
Z:Paul Hardy's Session Tunebook 2015 (see www.paulhardy.net). Creative Commons cc by-nc-sa licenced.
M:2/2
L:1/8
Q:1/2=60
K:ADor
A|"Am" AB cd e2c2|"G"dc BA "Em"B2E2|"Am"AB cd e2c2|"G" dc Bc "Am"A3:|
|:a|"Am" gf ed "Em"e2c2|"Am" dc BA "Em"B2E2|"Am"AB cd e2c2|"G" dc Bc "Am"A3:|

